X: 643
T: Ku wugeng
%%abc-version 2.0
%%abcx-abcm2ps-target-version 5.9.1 (29 Sep 2008)
%%abc-creator hum2abc beta
%%abcx-conversion-date 2013/10/02 07:52:30
%%abc-edited-by Helmut Schaffrath
%%humdrum-veritas 3406567025
%%humdrum-veritas-data 1532943164
%%continueall 1
%%barnumbers 0
L: 1/8
M: 2/4
K: A
e> f e A [I:setbarnb 1]| 
B3c | 
e> f e A | 
B4 | 
B2e2 | 
B2e2 | 
e f e A | 
B4 | 
B2e2 | 
B2e2 | 
B2e2 | 
B c B A | 
A3B | 
A2z2 | 
F2F A | 
B3c | 
A3c | 
B A G F | 
E3A | 
F E D B, | 
E4 |]  



